tools/download-figma-icons/icons/solid/moon.svg

<svg width="24" height="24" viewBox="0 0 24 24" fill="none" xmlns="http://www.w3.org/2000/svg">
<path d="M21.7492 11.6571C21.7492 17.4321 17.0992 22.1271 11.3767 22.1271C7.6417 22.1271 4.1842 20.0871 2.3467 16.8021C2.1892 16.5246 2.2267 16.1721 2.4367 15.9396C2.6467 15.6996 2.9917 15.6171 3.2842 15.7371C4.3192 16.1646 5.4292 16.3821 6.5767 16.3821C11.4667 16.3821 15.4417 12.3546 15.4417 7.40457C15.4417 5.85207 15.0517 4.32207 14.3017 2.99457C14.1442 2.71707 14.1817 2.37207 14.3917 2.13207C14.6017 1.89207 14.9392 1.80957 15.2317 1.92957C19.1917 3.52707 21.7492 7.34457 21.7492 11.6571Z" fill="black"/>
</svg>

<svg xmlns="http://www.w3.org/2000/svg" width="24" height="24" fill="none" viewBox="0 0 24 24"><path fill="currentColor" d="M21.75 11.657c0 5.775-4.65 10.47-10.373 10.47-3.735 0-7.193-2.04-9.03-5.325a.75.75 0 0 1 .09-.862.755.755 0 0 1 .847-.203 8.6 8.6 0 0 0 3.293.645c4.89 0 8.865-4.027 8.865-8.977 0-1.553-.39-3.083-1.14-4.41a.75.75 0 0 1 .09-.863.74.74 0 0 1 .84-.202c3.96 1.597 6.517 5.415 6.517 9.727"/></svg>
